!! 00000] TT[00
!! NN
!!!OTL: Liang ba shanzi
!!!ARE: Asia, China, Shanxi Ziyang(sÅdl. d. Qinling-Gebirges)
!! Ethnic Group: Han
!! I, 76
!!!SCT: C0026
!!!YEM: Copyright 1995, estate of Helmut Schaffrath.
**kern
*ICvox
*Ivox
*M2/4
*k[b-e-]
*B-:
{16gg
16bb-
16ff
16gg
4bb-
=1
16ccc
16bb-
8gg
4ff}
=2
{8bb-
4bb-
8ddd
=3
4ccc
16ccc
16bb-
8gg}
=4
{8bb-
4bb-
8ddd
=5
4ccc
16ccc
16bb-
8gg}
=6
{8.bb-
16ccc
8gg
8bb-
=7
16bb-
16ccc
16gg
16bb-
4ccc
=8
8.ff
16gg
4ff}
=9
{8bb-
4gg
8ddd
=10
8bb-
16ccc
16bb-
8gg
8bb-
=11
2ff}
==
!!!AGN: Shange. Biaoda aiqing
!! 
!!!ONB: ESAC (Essen Associative Code) Database: CHINA
!!!AMT: simple duple
!!!AIN: vox
!!!EED: Helmut Schaffrath
!!!EEV: 1.0
*-
